!!!!SEGMENT: pl-wtm--r-1539--005_stefani-jozef--msza-no-1-offertorium.krn
!!!cenid: 18xx:1765
!!!COM: Stefani, Józef
!!!COM-rismID: pe30024097
!!!CDT: 1800/04/16-1876/03/19
!!!CNT: Polish
!!!OPR: Msza No 1
!!!OTL: Offertorium
!!!OMV: 005
!!!PDT:
!!!AGN: Sacred; Mass
!!!SMS-siglum: PL-Wtm
!!!SMS-shelfmark: R 1539
!!!SMS-shelfwork: 001-005 M
!!!SMS-variant:
!!!SMS-altvar:
!!!NIFC-rismSourceID: 1001120484
!!!NIFC-islandoraID: pl-wtm:26320
!!!URL-pdf-islandora: https://repozytorium.nifc.pl/islandora/object/pl-wtm%3A26320/datastream/PDF/view
!!!URL-scan: https://polish.musicsources.pl/pl/lokalizacje/galeria/rekopisy/6340 @EN{Scan on Polish Music Sources Website} @PL{Skany w portalu Dziedzictwo Muzyki Polskiej w otwartym dostępie}
!!!ONB-nifc: UWAGA: części Mszy: 1. Kyrie, 2. Gloria, 3. Graduale, 4. Credo, 5. Offertorium, 6. Sanctus, 7. Benedictus, 8. Agnus Dei. Uwaga: niektóre części razem z „przygrywkami”
!!!AIN: 1 alto 1 empty 1 organ 1 soprn
!!!key:
**kern	**kern	**kern	**text	**text	**text	**dynam	**kern	**kern	**text	**text	**text	**dynam
*group	*group	*group1	*group1	*group1	*group1	*group1	*group1	*group1	*group1	*group1	*group1	*group1
*part4	*part4	*part3	*part3	*part3	*part3	*part3	*part2	*part1	*part1	*part1	*part1	*part1
*staff5	*staff4	*staff3	*staff3	*staff3	*staff3	*	*staff2	*staff1	*staff1	*staff1	*staff1	*
*>[A,A1,A,A1,A,A2,B,C,C,D]	*>[A,A1,A,A1,A,A2,B,C,C,D]	*>[A,A1,A,A1,A,A2,B,C,C,D]	*	*	*	*	*>[A,A1,A,A1,A,A2,B,C,C,D]	*>[A,A1,A,A1,A,A2,B,C,C,D]	*	*	*	*
*Iorgan	*Iempty	*Iempty	*	*	*	*	*Ialto	*Isoprn	*	*	*	*
*I"Organo	*	*I"Baſso	*	*	*	*	*I"Alto	*I"Soprano	*	*	*	*
*I'org	*	*I'B	*	*	*	*	*I'A	*I'S	*	*	*	*
*clefF4	*clefG2	*clefF4	*	*	*	*	*clefG2	*clefG2	*	*	*	*
*k[b-]	*k[b-]	*k[b-]	*	*	*	*	*k[b-]	*k[b-]	*	*	*	*
*F:	*F:	*F:	*	*	*	*	*F:	*F:	*	*	*	*
*M3/4	*M3/4	*M3/4	*	*	*	*	*M3/4	*M3/4	*	*	*	*
=1	=1	=1	=1	=1	=1	=1	=1	=1	=1	=1	=1	=1
*>A	*>A	*>A	*	*	*	*	*>A	*>A	*	*	*	*
*^	*	*	*	*	*	*	*	*	*	*	*	*
*2\right	*2\right	*2\right	*2\right	*	*	*	*	*2\right	*2\right	*	*	*	*
!	!	!	!	!	!	!	!	!	!LO:TX:i:a:t=Offertorium	!	!	!	!
!	!	!	!	!	!	!	!	!	!LO:TX:i:a:t=dolce	!	!	!	!
!	!	!	!	!	!	!	!	!	!LO:TX:a:t=P:problem=all\right&colon; global	!	!	!	!
4FF/	[<2.FF\	2a 2f 2c/	2F\	.	.	.	.	2c/	2a/	1.) Przyj-	2.) Kę-	3.) Któ-	.
[>2F/	.	.	.	.	.	.	.	.	.	.	.	.	.
.	.	4g 4e 4B-/	4F\	.	.	.	.	4B-/	4g/	-mij	-dy	-rzy	.
=2	=2	=2	=2	=2	=2	=2	=2	=2	=2	=2	=2	=2	=2
*	*	*^	*	*	*	*	*	*	*	*	*	*	*
2F/]	4FF\]	4f/	2A\	2F\	.	.	.	.	2A/	(>4f/	Bo-	Two-	iuż	.
.	4F\	4c/	.	.	.	.	.	.	.	4c/)	.	.	.	.
4ryy	4E\	4g 4c/	4ryy	4E\	.	.	.	.	4c/	4g/	-że	-je	są	.
*v	*v	*	*	*	*	*	*	*	*	*	*	*	*	*
=3	=3	=3	=3	=3	=3	=3	=3	=3	=3	=3	=3	=3	=3
4F\	2a 2f/	2ryy	(>4F\	.	.	.	.	2f/	2a/	tę	słoń-	przy	.
4D\	.	.	4D\)	.	.	.	.	.	.	.	.	.	.
4BB-/	8cc/L	4g 4d\	4BB-/	.	.	.	.	4d/	(<8cc/L	o-	-ce	Twym	.
.	8b-/J	.	.	.	.	.	.	.	8b-/J)	.	.	.	.
=4	=4	=4	=4	=4	=4	=4	=4	=4	=4	=4	=4	=4	=4
2C/	4a 4f/	2c\	4C/	.	.	.	.	4f/	4a/	-fia-	świe-	tro-	.
.	4g 4e/	.	4C/	.	.	.	.	4e/	4g/	-rę	-ci	-nie	.
4BB-/	4r	4ryy	4r	.	.	.	.	4r	4r	.	.	.	.
!!LO:PB:g=original
=5	=5	=5	=5	=5	=5	=5	=5	=5	=5	=5	=5	=5	=5
4AA/	2cc 2f/	2.c\	2A 2AA\	Któ-	Tam	Ci	.	2f/	2cc\	Któ-	.	.	.
4FF/	.	.	.	.	.	.	.	.	.	.	.	.	.
4AA/	4f/	.	4A 4AA\	-rą	gdzie	co	.	4f/	4f/	-rą	.	.	.
=6	=6	=6	=6	=6	=6	=6	=6	=6	=6	=6	=6	=6	=6
4BB-/	8.a/L	4e [<4c\	4B- 4BB-\	za	ludz-	ży-	.	4e/	(<8.a/L	za	.	.	.
.	16g/Jk	.	.	.	.	.	.	.	16g/Jk)	.	.	.	.
4AA/	2f/	2c\]	2A 2AA\	nas	-kie	-ją	.	2f/	2f/	nas	.	.	.
4A\	.	.	.	.	.	.	.	.	.	.	.	.	.
=7	=7	=7	=7	=7	=7	=7	=7	=7	=7	=7	=7	=7	=7
*	*	*	*^	*	*	*	*	*	*	*	*	*	*
4G\	2b-/	4d\	(>2G/	4GG\	Ka-	ser-	do	.	(<4d/	2b-/	Ka-	.	.	.
4GG/	.	4e\	.	4G\	.	.	.	.	4e/)	.	.	.	.	.
4FF/	4a/	4f 4c\	4F/)	4F\	płan	ca	tej	.	4f/	4a/	-płan	.	.	.
*	*v	*v	*	*	*	*	*	*	*	*	*	*	*	*
=8	=8	=8	=8	=8	=8	=8	=8	=8	=8	=8	=8	=8	=8
[<4C/	4a 4f 4c/	4c\ 4C\	4ryy	świę-	bi-	chwi-	.	4f/	4a/	świę-	.	.	.
8C/]	8g 8e 8c/	8C/	8C\	-ci	-ią	-li	.	8e/	8g/	-ci	.	.	.
8G\L	8r	8r	8ryy	.	.	.	.	8r	8r	.	.	.	.
8E\	4r	4r	4ryy	.	.	.	.	4r	4r	.	.	.	.
8C\J	.	.	.	.	.	.	.	.	.	.	.	.	.
*	*	*v	*v	*	*	*	*	*	*	*	*	*	*
=9	=9	=9	=9	=9	=9	=9	=9	=9	=9	=9	=9	=9
*^	*^	*	*	*	*	*	*	*	*	*	*	*
!	!LO:N:vis=2.	!	!	!	!	!	!	!LO:DY:a:rj	!	!	!	!	!	!LO:DY:a:rj
2.BBn/	8BBn\L	4.g/	2.d\	2BBn/	Wzma-	Niech	Co	f	2d/	[<4g/	Wzma-	.	.	f
.	8G\	.	.	.	.	.	.	.	.	.	.	.	.	.
.	8F\	.	.	.	.	.	.	.	.	8g/L]	.	.	.	.
.	8G\	8a/L	.	.	.	.	.	.	.	8a/J	.	.	.	.
.	8F\	8g/	.	4BB/	-cniaj	Cię	po	.	4d/	8g/L	-cniaj	.	.	.
.	8G\J	8f/J	.	.	.	.	.	.	.	8f/J	.	.	.	.
*	*	*v	*v	*	*	*	*	*	*	*	*	*	*	*
=10	=10	=10	=10	=10	=10	=10	=10	=10	=10	=10	=10	=10	=10
!	!LO:N:vis=2.	!	!	!	!	!	!	!	!	!	!	!	!
2C/	8C\L	2e 2c/	2C/	wie-	zna-	na-	.	2c/	2e/	wie-	.	.	.
.	8G\	.	.	.	.	.	.	.	.	.	.	.	.
.	8E\	.	.	.	.	.	.	.	.	.	.	.	.
.	8G\J	.	.	.	.	.	.	.	.	.	.	.	.
4C/	8C\L	4f 4d/	4C/	-cznie	-ią	-szym	.	4d/	4f/	-cznie	.	.	.
.	8c\J	.	.	.	.	.	.	.	.	.	.	.	.
!!LO:LB:g=original
=11	=11	=11	=11	=11	=11	=11	=11	=11	=11	=11	=11	=11	=11
*	*	*^	*	*	*	*	*	*	*	*	*	*	*
*	*	*	*	*	*	*	*	*	*	*	*	*	*	*above
4C/	8C\L	4g 4e/	4ryy	(>4C/	na-	Two-	przyj-	.	(<4e/	(<4g/	na-	.	.	<
.	8c\J	.	.	.	.	.	.	.	.	.	.	.	.	.
4FF/	8FF\L	4a/	2f\	4F\)	.	.	.	.	4f/)	4a/)	.	.	.	.
.	8F\J	.	.	.	.	.	.	.	.	.	.	.	.	.
4DD/	8DD\L	4bn/	.	4D\	-szą	-je	-dą	.	4f/	4bn/	-szą	.	.	.
.	8D\J	.	.	.	.	.	.	.	.	.	.	.	.	[
=12	=12	=12	=12	=12	=12	=12	=12	=12	=12	=12	=12	=12	=12	=12
8CC/L	4CC\	8cc/L	2e\	2C/	wia-	dzie-	zgo-	.	4e/	8.cc/L	wia-	.	.	>
[<8C/J	.	8g/J	.	.	.	.	.	.	.	.	.	.	.	.
.	.	.	.	.	.	.	.	.	.	16g/Jk	.	.	.	.
4C] 4CC/	4ryy	4g/	.	.	.	.	.	.	4e/	4g/	-rę	.	.	]
4BB-/	4ryy	4rdd	4r	4BB-X/	-rę	-ci	-nie	.	4r	4r	.	.	.	.
*v	*v	*	*	*	*	*	*	*	*	*	*	*	*	*
=13	=13	=13	=13	=13	=13	=13	=13	=13	=13	=13	=13	=13	=13
2.AA/	2cc/	2.f\	2AA/	Wspie-	Niech	Spraw	.	2f/	2cc\	Wspie-	.	.	<
.	4cc#X/	.	4AA/	-raj	jak	by	.	4f/	4cc#X\	-raj	.	.	[[
*	*v	*v	*	*	*	*	*	*	*	*	*	*	*
=14	=14	=14	=14	=14	=14	=14	=14	=14	=14	=14	=14	=14
2.BB-/	4dd 4f/	2BB-/	wszy-	bra-	Bo-	.	(>4f/	(>4dd\	wszy-	.	.	>
.	8ccnL 8e/	.	.	.	.	.	8e/L	8ccn\L	.	.	.	.
.	8b- 8d/	.	.	.	.	.	8d/J)	8b-\J)	.	.	.	]
.	8a 8c/	4BB-/	-stkie	-cia	-że	.	(<8c/L	(<8a/L	-stkie	.	.	.
.	8gJ 8B-/	.	.	.	.	.	8B-/J)	8g/J)	.	.	.	.
=15	=15	=15	=15	=15	=15	=15	=15	=15	=15	=15	=15	=15
2C/	4f 4A/	2C/	do-	w zgo-	w To -	.	(<4A/	(<4f/	do-	.	.	.
.	4a 4c/	.	.	.	.	.	4c/)	4a/)	.	.	.	.
4C 4CC/	[>4g [>4e [<4B-/	4C/	-bre	-dzie	-bie	.	4B-/	4g/	-bre	.	.	.
=16	=16	=16	=16	=16	=16	=16	=16	=16	=16	=16	=16	=16
*>A1	*>A1	*>A1	*	*	*	*	*>A1	*>A1	*	*	*	*
!	!LO:TX:a:t=1. 2.	!	!	!	!	!	!	!	!	!	!	!
2C 2FF/	8.g]L 8.e] 8.B-/]	4F\	chę-	ży-	ży-	.	(<8.B-/L	(<8.g/L	chę-	.	.	.
.	16fJk 16A/	.	.	.	.	.	16A/Jk)	16f/Jk)	.	.	.	.
.	4f 4A/	4F\	-ci	-ją	-li.	.	4A/	4f/	-ci	.	.	.
4E 4EE/	4g 4c/	4r	.	.	.	.	4r	4r	.	.	.	.
!!LO:PB:g=original
=17:|!	=17:|!	=17:|!	=17:|!	=17:|!	=17:|!	=17:|!	=17:|!	=17:|!	=17:|!	=17:|!	=17:|!	=17:|!
*>A2	*>A2	*>A2	*	*	*	*	*>A2	*>A2	*	*	*	*
!	!LO:TX:a:t=3.	!	!	!	!	!	!	!	!	!	!	!
2C 2FF/	8.gL 8.e 8.B-/	2.ryy	.	.	.	.	2.ryy	2.ryy	.	.	.	.
.	16fJk 16A/	.	.	.	.	.	.	.	.	.	.	.
.	4f 4A/	.	.	.	.	.	.	.	.	.	.	.
*clefG2	*	*	*	*	*	*	*	*	*	*	*	*
4a/	4ff 4cc\	.	.	.	.	.	.	.	.	.	.	.
=18	=18	=18	=18	=18	=18	=18	=18	=18	=18	=18	=18	=18
*>B	*>B	*>B	*	*	*	*	*>B	*>B	*	*	*	*
8a/L	8ffL 8cc\	2.ryy	.	.	.	.	2.ryy	2.ryy	.	.	.	.
8g/	8ee 8b-\	.	.	.	.	.	.	.	.	.	.	.
8f/	8dd 8a\	.	.	.	.	.	.	.	.	.	.	.
8e/	8cc 8g\	.	.	.	.	.	.	.	.	.	.	.
8d/	8b- 8f\	.	.	.	.	.	.	.	.	.	.	.
8c/J	8aJ 8e\	.	.	.	.	.	.	.	.	.	.	.
=19	=19	=19	=19	=19	=19	=19	=19	=19	=19	=19	=19	=19
*	*^	*	*	*	*	*	*	*	*	*	*	*
4.B-/	4.g/	[<2.d\	2.ryy	.	.	.	.	2.ryy	2.ryy	.	.	.	.
!LO:TX:t=P:problem=mixed beam	!	!	!	!	!	!	!	!	!	!	!	!	!
8c/L	(>8f#X/L	.	.	.	.	.	.	.	.	.	.	.	.
8B-/	8g/	.	.	.	.	.	.	.	.	.	.	.	.
*clefF4	*	*	*	*	*	*	*	*	*	*	*	*	*
8F#X\J	8a/J	.	.	.	.	.	.	.	.	.	.	.	.
=20	=20	=20	=20	=20	=20	=20	=20	=20	=20	=20	=20	=20	=20
4.G\	4.cc/	2.d\]	2.ryy	.	.	.	.	2.ryy	2.ryy	.	.	.	.
8GL 8GG/	8b-/L	.	.	.	.	.	.	.	.	.	.	.	.
8A 8AA/	8a/	.	.	.	.	.	.	.	.	.	.	.	.
8B-J 8BB-/	8g/J)	.	.	.	.	.	.	.	.	.	.	.	.
=21	=21	=21	=21	=21	=21	=21	=21	=21	=21	=21	=21	=21	=21
*^	*	*	*	*	*	*	*	*	*	*	*	*	*
2A/	2.C\	4f/	2c\	2.ryy	.	.	.	.	2.ryy	2.ryy	.	.	.	.
.	.	4a/	.	.	.	.	.	.	.	.	.	.	.	.
4E/	.	4g/	4B-\	.	.	.	.	.	.	.	.	.	.	.
*	*	*v	*v	*	*	*	*	*	*	*	*	*	*	*
=22!|:	=22!|:	=22!|:	=22!|:	=22!|:	=22!|:	=22!|:	=22!|:	=22!|:	=22!|:	=22!|:	=22!|:	=22!|:	=22!|:
*>C	*>C	*>C	*>C	*	*	*	*	*>C	*>C	*	*	*	*
8F/L	[<2.FF\	4.f 4.A/	2.ryy	.	.	.	.	2.ryy	2.ryy	.	.	.	.
[<8C/J	.	.	.	.	.	.	.	.	.	.	.	.	.
[>2F 2C/]	.	.	.	.	.	.	.	.	.	.	.	.	.
.	.	8aL 8c/	.	.	.	.	.	.	.	.	.	.	.
.	.	8g#X 8d 8Bn/	.	.	.	.	.	.	.	.	.	.	.
.	.	8aJ 8c/	.	.	.	.	.	.	.	.	.	.	.
!!LO:LB:g=original
=23	=23	=23	=23	=23	=23	=23	=23	=23	=23	=23	=23	=23	=23
8F/L]	2.FF\]	4.f 4.A/	2.ryy	.	.	.	.	2.ryy	2.ryy	.	.	.	.
[<8C/J	.	.	.	.	.	.	.	.	.	.	.	.	.
2F 2C/]	.	.	.	.	.	.	.	.	.	.	.	.	.
.	.	8aL 8c/	.	.	.	.	.	.	.	.	.	.	.
.	.	8g#X 8d 8Bn/	.	.	.	.	.	.	.	.	.	.	.
.	.	8aJ 8c/	.	.	.	.	.	.	.	.	.	.	.
=24	=24	=24	=24	=24	=24	=24	=24	=24	=24	=24	=24	=24	=24
[>2.E [>2.BB-/	[<2.FF\	4.cc 4.e/	2.ryy	.	.	.	.	2.ryy	2.ryy	.	.	.	.
.	.	8b-XL 8d/	.	.	.	.	.	.	.	.	.	.	.
.	.	8a 8c/	.	.	.	.	.	.	.	.	.	.	.
.	.	8gJ 8B-/	.	.	.	.	.	.	.	.	.	.	.
=25	=25	=25	=25	=25	=25	=25	=25	=25	=25	=25	=25	=25	=25
2.E] 2.BB-/]	2.FF\]	4.a 4.c/	2.ryy	.	.	.	.	2.ryy	2.ryy	.	.	.	.
.	.	8gL 8B-/	.	.	.	.	.	.	.	.	.	.	.
.	.	8a 8c/	.	.	.	.	.	.	.	.	.	.	.
.	.	8gJ 8B-/	.	.	.	.	.	.	.	.	.	.	.
=26:|!	=26:|!	=26:|!	=26:|!	=26:|!	=26:|!	=26:|!	=26:|!	=26:|!	=26:|!	=26:|!	=26:|!	=26:|!	=26:|!
*>D	*>D	*>D	*>D	*	*	*	*	*>D	*>D	*	*	*	*
*	*^	*^	*	*	*	*	*	*	*	*	*	*	*
8FL 8AA/	4ryy	[<2.FF\	2f 2A/	2ryy	2.ryy	.	.	.	.	2.ryy	2.ryy	.	.	.	.
8C/J	.	.	.	.	.	.	.	.	.	.	.	.	.	.	.
2F/	4C\	.	.	.	.	.	.	.	.	.	.	.	.	.	.
.	4D-X 4BB-\	.	8.e/L	4d-X 4B-X\	.	.	.	.	.	.	.	.	.	.	.
.	.	.	32f/LL	.	.	.	.	.	.	.	.	.	.	.	.
.	.	.	32g/JJJ	.	.	.	.	.	.	.	.	.	.	.	.
=27	=27	=27	=27	=27	=27	=27	=27	=27	=27	=27	=27	=27	=27	=27	=27
8FL 8AA/	4ryy	2.FF\]	2f 2c 2A/	2ryy	2.ryy	.	.	.	.	2.ryy	2.ryy	.	.	.	.
8C/J	.	.	.	.	.	.	.	.	.	.	.	.	.	.	.
2F/	4C\	.	.	.	.	.	.	.	.	.	.	.	.	.	.
.	4D-X 4BB-\	.	8.e/L	4d-X 4B-\	.	.	.	.	.	.	.	.	.	.	.
.	.	.	32f/LL	.	.	.	.	.	.	.	.	.	.	.	.
.	.	.	32g/JJJ	.	.	.	.	.	.	.	.	.	.	.	.
*	*v	*v	*	*	*	*	*	*	*	*	*	*	*	*	*
*	*	*v	*v	*	*	*	*	*	*	*	*	*	*	*
=28	=28	=28	=28	=28	=28	=28	=28	=28	=28	=28	=28	=28	=28
[>2.F/	4F 4C 4AA 4FF\	[>2.f [>2.c [<2.A/	2.ryy	.	.	.	.	2.ryy	2.ryy	.	.	.	.
.	4F\	.	.	.	.	.	.	.	.	.	.	.	.
.	4C\	.	.	.	.	.	.	.	.	.	.	.	.
=29	=29	=29	=29	=29	=29	=29	=29	=29	=29	=29	=29	=29	=29
2.F/_>	4AA\	2.f_> 2.c_> 2.A/_<	2.ryy	.	.	.	.	2.ryy	2.ryy	.	.	.	.
.	4C\	.	.	.	.	.	.	.	.	.	.	.	.
.	4AA\	.	.	.	.	.	.	.	.	.	.	.	.
*v	*v	*	*	*	*	*	*	*	*	*	*	*	*
=30	=30	=30	=30	=30	=30	=30	=30	=30	=30	=30	=30	=30
2.F] 2.FF/	2.f] 2.c] 2.A/]	2.ryy	.	.	.	.	2.ryy	2.ryy	.	.	.	.
==	==	==	==	==	==	==	==	==	==	==	==	==
*-	*-	*-	*-	*-	*-	*-	*-	*-	*-	*-	*-	*-
!!!system-decoration: {(g1)}{(s4,s5)}
!!!RDF**kern: > = above
!!!RDF**kern: < = below
!!!EED: Antoni Szymański
!!!EEV: 2021-04-22
!!!ENC: Krzysztof Stępień
!!!END: 2021-04-06
